cached_logos/algorithmia.svg

<?xml version="1.0" encoding="UTF-8" standalone="no"?>
<svg   viewBox="-3.4199999999999875 -0.3200000000000003 177.84 16.64" version="1.1" xmlns="http://www.w3.org/2000/svg" xmlns:xlink="http://www.w3.org/1999/xlink">
    <g id="Page-1" stroke="none" stroke-width="1" fill="none" fill-rule="evenodd">
        <g id="Mobile-Portrait-Navbar_Open-Copy-2" transform="translate(-16.000000, -25.000000)" fill="#5000BE">
            <g id="nav_mobile">
                <g id="logo" transform="translate(16.000000, 25.000000)">
                    <polygon id="Fill-16" points="155.279001 15.9809092 157.819063 15.9809092 159.072921 13.4648614 160.131981 15.9809092 162.394168 15.9809092 160.365396 10.9104828 163.139586 5.28332723 165.913633 10.9104828 163.884433 15.9809092 166.147048 15.9809092 167.206108 13.4648614 168.460393 15.9809092 171.000028 15.9809092 163.139586 0.143560873"></polygon>
                    <polygon id="Fill-15" points="148.741643 15.9809092 151.346685 15.9809092 151.346685 0.143560873 148.741643 0.143560873"></polygon>
                    <polygon id="Fill-14" points="136.327983 8.0622494 128.467113 0.143575229 128.467113 15.9809236 131.072155 15.9809236 131.072155 6.51078705 136.327983 11.8041635 141.560583 6.51078705 141.560583 15.9809236 144.211368 15.9809236 144.211368 0.143575229"></polygon>
                    <polygon id="Fill-13" points="121.309295 0.143603941 121.309295 6.73835975 113.448425 6.73835975 113.448425 0.143603941 110.843383 0.143603941 110.843383 15.9809523 113.448425 15.9809523 113.448425 9.3857658 121.309295 9.3857658 121.309295 15.9809523 123.936853 15.9809523 123.936853 0.143603941"></polygon>
                    <polygon id="Fill-12" points="93.7950675 0.143603941 93.7950675 2.79029219 99.0504675 2.79029219 99.0504675 15.9809523 101.678025 15.9809523 101.678025 2.79029219 106.911052 2.79029219 106.911052 0.143603941"></polygon>
                    <polygon id="Fill-10" points="87.2580225 15.9809092 89.86278 15.9809092 89.86278 0.143560873 87.2580225 0.143560873"></polygon>
                    <path d="M72.239349,8.03926531 L72.239349,2.79024912 L77.494464,2.79024912 C78.2045415,2.79024912 78.816009,3.04952006 79.329864,3.56562139 C79.8430065,4.0840197 80.0997915,4.69975229 80.0997915,5.41439831 C80.0997915,6.14526671 79.842864,6.76918227 79.329864,7.28657565 C78.816009,7.80382548 78.2045415,8.06223505 77.494464,8.06223505 L72.239349,8.03926531 Z M69.6343065,0.143560873 L69.6343065,15.9809092 L72.239349,15.9809092 L72.239349,10.7097847 L76.678794,10.7097847 L79.7150415,15.9809092 L82.727349,15.9809092 L79.488039,10.299057 C80.4244065,9.91847713 81.1944765,9.28709641 81.798819,8.40434061 C82.4176965,7.50722871 82.727349,6.5107727 82.727349,5.41439831 C82.727349,3.96960169 82.214349,2.73009711 81.1873515,1.6947361 C80.1596415,0.660092892 78.929724,0.143560873 77.4943215,0.143560873 L69.6343065,0.143560873 L69.6343065,0.143560873 Z" id="Fill-8"></path>
                    <path d="M54.1036162,11.8041923 C53.0915812,10.7553365 52.5859912,9.5079361 52.5859912,8.06227811 C52.5859912,6.61705081 53.0915812,5.37668487 54.1036162,4.3426159 C55.1458612,3.3079727 56.3837587,2.79029219 57.8190187,2.79029219 C59.2535662,2.79029219 60.4843387,3.3079727 61.5111937,4.3426159 C62.5381912,5.37668487 63.0516187,6.61705081 63.0516187,8.06227811 C63.0516187,9.5079361 62.5381912,10.7553365 61.5111937,11.8041923 C60.4843387,12.8240487 59.2535662,13.3334027 57.8190187,13.3334027 C56.3837587,13.3334027 55.1458612,12.8240487 54.1036162,11.8041923 M52.2685012,2.47086925 C50.7282187,4.0230494 49.9581487,5.88690021 49.9581487,8.06227811 C49.9581487,10.2527299 50.7280762,12.1168678 52.2685012,13.6532563 C53.7935362,15.2044315 55.6440412,15.9809523 57.8190187,15.9809523 C59.9932837,15.9809523 61.8433612,15.2044315 63.3691087,13.6532563 C64.9240687,12.1316546 65.7019762,10.2680909 65.7019762,8.06227811 C65.7019762,5.88690021 64.9240687,4.0230494 63.3691087,2.47086925 C61.8433612,0.91825841 59.9932837,0.143603941 57.8190187,0.143603941 C55.6286512,0.143603941 53.7785737,0.91825841 52.2685012,2.47086925" id="Fill-5"></path>
                    <path d="M33.9061365,2.47082618 C32.3657115,4.02300633 31.595784,5.88685714 31.595784,8.06223505 C31.595784,10.2526868 32.3657115,12.1169683 33.9061365,13.6533568 C35.4311715,15.2043885 37.281534,15.9809092 39.4562265,15.9809092 C40.1353815,15.9809092 40.792449,15.8980746 41.427144,15.7299648 C42.061269,15.5622857 42.657774,15.3231133 43.2165165,15.0111555 C43.7748315,14.6987671 44.2923915,14.3227811 44.768484,13.8813315 C45.244149,13.4400253 45.663099,12.9536411 46.0254765,12.4201689 L46.0254765,6.7609993 L39.4562265,6.7609993 L39.4562265,9.38586629 L43.3974915,9.38586629 L43.3974915,11.5533483 C42.899454,12.1169683 42.313779,12.5539676 41.642034,12.8652076 C40.9701465,13.1774525 40.241259,13.3335032 39.4562265,13.3335032 C38.0212515,13.3335032 36.783069,12.8241492 35.7412515,11.8042928 C34.7292165,10.7552935 34.223199,9.50789303 34.223199,8.06223505 C34.223199,6.61700774 34.7292165,5.37678536 35.7412515,4.34257284 C36.783069,3.30807319 38.0212515,2.79039268 39.4562265,2.79039268 C40.906164,2.79039268 42.1369365,3.30807319 43.1484015,4.34257284 L45.0291165,2.47082618 C44.3040765,1.74038846 43.4656065,1.16987755 42.5145615,0.759293455 C41.562804,0.348278677 40.543359,0.143704433 39.4562265,0.143704433 C37.281534,0.143704433 35.4311715,0.918215341 33.9061365,2.47082618 L33.9061365,2.47082618 Z" id="Fill-3"></path>
                    <polygon id="Fill-2" points="19.0550002 0.143632653 19.0550002 15.980981 29.5213402 15.980981 29.5213402 13.3335749 21.6603277 13.3335749 21.6603277 0.143632653"></polygon>
                    <path d="M7.86082725,0.143632653 L-4.27499999e-05,15.980981 L2.92263225,15.980981 L4.25913975,13.3335749 L11.4854573,13.3335749 L12.7995923,15.980981 L15.7214123,15.980981 L7.86082725,0.143632653 Z M7.86082725,6.05417734 L10.1713222,10.7097129 L5.55047475,10.7097129 L7.86082725,6.05417734 Z" id="Fill-1"></path>
                </g>
            </g>
        </g>
    </g>
</svg>

<svg xmlns="http://www.w3.org/2000/svg" role="img" viewBox="-3.42 -3.29 177.71 22.59"><title>Algorithmia logo</title><g fill="none" fill-rule="evenodd"><g fill="#5000BE"><g><g><path d="M155.279 15.981h2.54l1.254-2.516 1.059 2.516h2.262l-2.029-5.071 2.775-5.627 2.774 5.627-2.03 5.071h2.263l1.059-2.516 1.254 2.516H171L163.14.144zm-6.537 0h2.605V.144h-2.605zm-12.414-7.919L128.467.144v15.837h2.605v-9.47l5.256 5.293 5.233-5.293v9.47h2.65V.144zM121.309.144v6.594h-7.861V.144h-2.605v15.837h2.605V9.386h7.861v6.595h2.628V.144zm-27.514 0V2.79h5.255v13.191h2.628V2.79h5.233V.144zm-6.537 15.837h2.605V.144h-2.605zM72.24 8.04V2.79h5.254c.71 0 1.322.26 1.836.776.513.518.77 1.134.77 1.848 0 .731-.257 1.355-.77 1.873-.514.517-1.125.775-1.836.775L72.24 8.04zM69.633.143V15.98h2.605v-5.27h4.44l3.036 5.27h3.012l-3.239-5.68c.936-.382 1.706-1.013 2.31-1.896a5.148 5.148 0 0 0 .93-2.99c0-1.444-.514-2.684-1.54-3.72C80.16.66 78.93.145 77.493.145h-7.86zM54.104 11.804c-1.012-1.049-1.518-2.296-1.518-3.742 0-1.445.506-2.685 1.518-3.72 1.042-1.034 2.28-1.552 3.715-1.552s2.665.518 3.692 1.553c1.027 1.034 1.54 2.274 1.54 3.72 0 1.445-.513 2.692-1.54 3.741-1.027 1.02-2.257 1.53-3.692 1.53s-2.673-.51-3.715-1.53m-1.835-9.333c-1.54 1.552-2.31 3.416-2.31 5.591 0 2.19.77 4.055 2.31 5.591 1.525 1.551 3.375 2.328 5.55 2.328 2.174 0 4.024-.777 5.55-2.328 1.555-1.521 2.333-3.385 2.333-5.59 0-2.176-.778-4.04-2.333-5.592C61.843.918 59.993.144 57.82.144c-2.19 0-4.04.774-5.55 2.327M33.906 2.47c-1.54 1.553-2.31 3.417-2.31 5.592 0 2.19.77 4.055 2.31 5.591 1.525 1.551 3.376 2.328 5.55 2.328a7.665 7.665 0 0 0 3.76-.97 8.071 8.071 0 0 0 1.552-1.13 8.51 8.51 0 0 0 1.257-1.46V6.76h-6.569v2.625h3.941v2.167a5.274 5.274 0 0 1-1.755 1.312c-.672.312-1.4.469-2.186.469-1.435 0-2.673-.51-3.715-1.53-1.012-1.049-1.518-2.296-1.518-3.742 0-1.445.506-2.685 1.518-3.72 1.042-1.034 2.28-1.552 3.715-1.552 1.45 0 2.68.518 3.692 1.553L45.03 2.47A7.95 7.95 0 0 0 42.515.759a7.63 7.63 0 0 0-3.059-.615c-2.174 0-4.025.774-5.55 2.327zM19.055.144v15.837h10.466v-2.647H21.66V.144zM7.86.144L0 15.98h2.923l1.336-2.647h7.226L12.8 15.98h2.921L7.861.144zm0 5.91l2.311 4.656h-4.62l2.31-4.656z"/></g></g></g></g></svg>
